client/public/assets/icons/standard/portal_roles.svg

<?xml version="1.0"?><svg xmlns="http://www.w3.org/2000/svg" width="100" height="100" viewBox="0 0 100 100"><path fill="#fff" d="m73.8 20h-47.6c-3.4 0-6.2 2.8-6.2 6.2v47.6c0 3.4 2.8 6.2 6.2 6.2h47.6c3.4 0 6.2-2.8 6.2-6.2v-47.6c0-3.4-2.8-6.2-6.2-6.2z m-26.4 7.4c0-0.8 0.8-1.4 1.6-1.4h23.4c0.8 0 1.4 0.8 1.4 1.6v3c0 0.8-0.8 1.4-1.6 1.4h-23.4c-0.8 0-1.4-0.8-1.4-1.6v-3z m-8-1.4c1.7 0 3 1.3 3 3s-1.3 3-3 3-3-1.3-3-3 1.3-3 3-3z m-10.4 0c1.7 0 3 1.3 3 3s-1.3 3-3 3-3-1.3-3-3 1.3-3 3-3z m45 46.6c0 0.8-0.8 1.4-1.6 1.4h-45c-0.8 0-1.4-0.8-1.4-1.6v-33c0-0.8 0.8-1.4 1.6-1.4h45c0.8 0 1.4 0.8 1.4 1.6v33z m-6-20.3c0 1.1-0.9 2-2 2h-7.6c-1.1 0-2-0.9-2-2v-3c0-1.1 0.9-2 2-2h7.6c1.1 0 2 0.9 2 2v3z m0 11c0 1.1-0.9 2-2 2h-7.6c-1.1 0-2-0.9-2-2v-3c0-1.1 0.9-2 2-2h7.6c1.1 0 2 0.9 2 2v3z m-19-16h-15.4c-0.8 0-1.6 0.6-1.6 1.4v15c0 0.8 0.6 1.6 1.4 1.6h15.4c0.8 0 1.6-0.6 1.6-1.4v-15c0-0.8-0.6-1.6-1.4-1.6z m-4 14.9h-7.5c-0.8 0-1.5-0.9-1.5-1.8 0-1.3 1.4-2.1 2.8-2.8 1-0.4 1.1-0.8 1.1-1.3s-0.3-0.8-0.6-1.1c-0.6-0.5-0.9-1.3-0.9-2.2 0-1.7 1-3.1 2.8-3.1 1.7 0 2.8 1.4 2.8 3.1 0 0.9-0.3 1.7-0.9 2.2-0.3 0.3-0.6 0.7-0.6 1.1s0.1 0.8 1.1 1.2c1.4 0.6 2.8 1.5 2.8 2.8 0.1 1-0.6 1.9-1.4 1.9z"></path></svg>

<?xml version="1.0" encoding="utf-8"?>
<!-- Generator: Adobe Illustrator 21.1.0, SVG Export Plug-In . SVG Version: 6.00 Build 0)  -->
<svg version="1.1" id="Layer_1" xmlns="http://www.w3.org/2000/svg" xmlns:xlink="http://www.w3.org/1999/xlink" x="0px" y="0px"
	 width="100px" height="100px" viewBox="0 0 100 100" enable-background="new 0 0 100 100" xml:space="preserve">
<path fill="#FFFFFF" d="M73.8,20H26.2c-3.4,0-6.2,2.8-6.2,6.2v47.6c0,3.4,2.8,6.2,6.2,6.2h47.6c3.4,0,6.2-2.8,6.2-6.2V26.2
	C80,22.8,77.2,20,73.8,20z M47.4,27.4c0-0.8,0.8-1.4,1.6-1.4h23.4c0.8,0,1.4,0.8,1.4,1.6v3c0,0.8-0.8,1.4-1.6,1.4H48.8
	c-0.8,0-1.4-0.8-1.4-1.6V27.4z M39.4,26c1.7,0,3,1.3,3,3c0,1.7-1.3,3-3,3s-3-1.3-3-3C36.4,27.3,37.7,26,39.4,26z M29,26
	c1.7,0,3,1.3,3,3c0,1.7-1.3,3-3,3s-3-1.3-3-3C26,27.3,27.3,26,29,26z M74,72.6c0,0.8-0.8,1.4-1.6,1.4h-45c-0.8,0-1.4-0.8-1.4-1.6
	v-33c0-0.8,0.8-1.4,1.6-1.4h45c0.8,0,1.4,0.8,1.4,1.6V72.6z"/>
<path fill="#FFFFFF" d="M68,52.3c0,1.1-0.9,2-2,2h-7.6c-1.1,0-2-0.9-2-2v-3c0-1.1,0.9-2,2-2H66c1.1,0,2,0.9,2,2V52.3z"/>
<path fill="#FFFFFF" d="M68,63.3c0,1.1-0.9,2-2,2h-7.6c-1.1,0-2-0.9-2-2v-3c0-1.1,0.9-2,2-2H66c1.1,0,2,0.9,2,2V63.3z"/>
<path fill="#FFFFFF" d="M49,47.3H33.6c-0.8,0-1.6,0.6-1.6,1.4v15c0,0.8,0.6,1.6,1.4,1.6l0.2,0h15.2c0.8,0,1.6-0.6,1.6-1.4v-15
	C50.4,48.1,49.8,47.3,49,47.3z M45,62.2h-7.5c-0.8,0-1.5-0.9-1.5-1.8c0-1.3,1.4-2.1,2.8-2.8c1-0.4,1.1-0.8,1.1-1.3s-0.3-0.8-0.6-1.1
	c-0.6-0.5-0.9-1.3-0.9-2.2c0-1.7,1-3.1,2.8-3.1c1.7,0,2.8,1.4,2.8,3.1c0,0.9-0.3,1.7-0.9,2.2c-0.3,0.3-0.6,0.7-0.6,1.1
	s0.1,0.8,1.1,1.2c1.4,0.6,2.8,1.5,2.8,2.8C46.5,61.3,45.8,62.2,45,62.2z"/>
</svg>
